assets/icons/solid/flask-vial.svg

<svg xmlns="http://www.w3.org/2000/svg" viewBox="0 0 640 512"><!--! Font Awesome Pro 6.2.0 by @fontawesome - https://fontawesome.com License - https://fontawesome.com/license (Commercial License) Copyright 2022 Fonticons, Inc. --><path d="M175 389.4c-9.8 16-15 34.3-15 53.1c-10 3.5-20.8 5.5-32 5.5c-53 0-96-43-96-96V64C14.3 64 0 49.7 0 32S14.3 0 32 0H96h64 64c17.7 0 32 14.3 32 32s-14.3 32-32 32V309.9l-49 79.6zM96 64v96h64V64H96zM352 0H480h32c17.7 0 32 14.3 32 32s-14.3 32-32 32V214.9L629.7 406.2c6.7 10.9 10.3 23.5 10.3 36.4c0 38.3-31.1 69.4-69.4 69.4H261.4c-38.3 0-69.4-31.1-69.4-69.4c0-12.8 3.6-25.4 10.3-36.4L320 214.9V64c-17.7 0-32-14.3-32-32s14.3-32 32-32h32zm32 64V224c0 5.9-1.6 11.7-4.7 16.8L330.5 320h171l-48.8-79.2c-3.1-5-4.7-10.8-4.7-16.8V64H384z"/></svg>

<svg xmlns="http://www.w3.org/2000/svg" viewBox="0 0 640 512"><!--! Font Awesome Free 6.1.2 by @fontawesome - https://fontawesome.com License - https://fontawesome.com/license/free (Icons: CC BY 4.0, Fonts: SIL OFL 1.1, Code: MIT License) Copyright 2022 Fonticons, Inc. --><path d="M160 442.5C149.1 446.1 139.2 448 128 448C74.98 448 32 405 32 352V64C14.33 64 0 49.67 0 32C0 14.33 14.33 0 32 0H224C241.7 0 256 14.33 256 32C256 49.67 241.7 64 224 64V309.9L175 389.4C165.2 405.4 160 423.8 160 442.5zM96 160H160V64H96V160zM512 0C529.7 0 544 14.33 544 32C544 49.67 529.7 64 512 64V214.9L629.7 406.2C636.4 417.2 640 429.7 640 442.6C640 480.9 608.9 512 570.6 512H261.4C223.1 512 191.1 480.9 191.1 442.6C191.1 429.7 195.6 417.2 202.3 406.2L319.1 214.9V64C302.3 64 287.1 49.67 287.1 32C287.1 14.33 302.3 0 319.1 0L512 0zM384 64V224C384 229.9 382.4 235.7 379.3 240.8L330.5 320H501.5L452.7 240.8C449.6 235.7 448 229.9 448 224V64H384z"/></svg>
